X: 2
T: Donald Blue
R: reel
M: 4/4
L: 1/8
K: Dmaj
|:dBAF A2FA|dBAF EFDd|dBAF A2FA|1 ~B3A BABc:|2 ~B3A BAdB|||:ABde ~f3a|g2fg edBd|ABde fedA|1 ~B3A BAFB:|2 ~B3A BABc||


Tune 1175	Setting 1175

